assets/images/Main/Partners/AWMM.svg

<svg width="160" height="60" viewBox="0 0 160 60" fill="none" xmlns="http://www.w3.org/2000/svg">
<path fill-rule="evenodd" clip-rule="evenodd" d="M17.047 23.6651C13.1712 23.6651 10 26.7143 10 30.4411V44.1062C10 47.833 13.1712 50.8823 17.047 50.8823H55.9228C59.7986 50.8823 62.9699 47.833 62.9699 44.1062V16.776C62.9699 13.0492 59.7986 10 55.9228 10H10.1175V16.889H53.6912C54.9832 16.889 55.9228 17.9054 55.9228 19.0348V41.7346C55.9228 42.9768 54.8657 43.8803 53.6912 43.8803H19.396C18.104 43.8803 17.1645 42.8639 17.1645 41.7346V32.5869C17.1645 31.3446 18.2215 30.4411 19.396 30.4411H48.8758V23.6651H17.047ZM121.46 49.9788C121.812 50.3176 122.634 50.8823 124.278 50.8823C126.158 50.8823 127.215 49.64 127.215 48.3977C127.215 46.8166 125.688 46.0261 124.748 45.6873C123.808 45.3485 123.456 45.0097 123.456 44.5579C123.456 44.2191 123.808 43.8803 124.278 43.8803C124.779 43.8803 125.398 44.2219 125.756 44.42C125.903 44.5009 126.006 44.5579 126.04 44.5579C126.158 44.6709 126.392 44.5579 126.51 44.445L127.215 43.5415C127.332 43.4286 127.332 43.2027 127.097 43.2027C126.745 42.8639 125.688 42.2992 124.396 42.2992C122.517 42.2992 121.577 43.5415 121.577 44.6709C121.577 46.139 122.869 46.9295 124.044 47.2683C124.866 47.6071 125.335 47.9459 125.335 48.5107C125.335 48.9624 124.983 49.1883 124.396 49.1883C123.799 49.1883 123.202 48.8311 122.875 48.6354L122.875 48.6353C122.751 48.5615 122.666 48.5107 122.634 48.5107C122.517 48.3977 122.282 48.3977 122.165 48.6236L121.577 49.64C121.401 49.7247 121.423 49.8094 121.445 49.8941C121.452 49.9223 121.46 49.9506 121.46 49.9788ZM114.06 46.0261V44.2191H115.94C116.409 44.2191 116.879 44.6709 116.879 45.1226C116.879 45.5743 116.409 46.0261 115.94 46.0261H114.06ZM112.181 50.5435C112.181 50.6564 112.299 50.7693 112.416 50.7693H113.943C114.06 50.7693 114.178 50.6564 114.178 50.5435V47.4942H115.117L116.762 50.6564C116.762 50.7693 116.879 50.7693 116.997 50.7693H118.641C118.876 50.7693 118.993 50.5435 118.876 50.4305L117.231 47.3813C118.288 46.9296 119.11 46.139 119.11 45.0097C119.11 43.5415 117.819 42.4122 116.409 42.4122H112.768C112.651 42.4122 112.533 42.5251 112.533 42.638V50.5435H112.181ZM102.785 46.5907C102.785 45.2355 103.842 44.2191 105.252 44.2191C106.661 44.2191 107.718 45.2355 107.718 46.5907C107.718 47.833 106.661 48.9624 105.252 48.9624C103.96 49.0753 102.785 47.9459 102.785 46.5907ZM100.906 46.5907C100.906 48.9624 102.902 50.8823 105.369 50.8823C107.836 50.8823 109.832 48.9624 109.832 46.5907C109.832 44.2191 107.836 42.2992 105.369 42.2992C102.785 42.2992 100.906 44.2191 100.906 46.5907ZM93.6244 49.9788C93.8589 50.3176 94.4463 50.8823 95.5034 50.8823C97.0302 50.8823 98.2049 49.9788 98.2049 48.2847V42.638C98.2049 42.5251 98.0873 42.4122 97.9697 42.4122H96.4429C96.3253 42.4122 96.2077 42.5251 96.2077 42.638V48.1718C96.2077 48.7365 95.8555 49.0753 95.5034 49.0753C95.1512 49.0753 95.0336 48.9624 94.7985 48.7365C94.6814 48.6236 94.5639 48.6236 94.4463 48.7365L93.6244 49.5271V49.9788ZM87.1642 47.9459L88.1038 45.9131L89.0438 47.9459H87.1642ZM84.1105 50.7693H85.5198C85.755 50.7693 85.8726 50.6564 85.9901 50.4305L86.4599 49.4141H89.8658L90.3355 50.3176C90.4531 50.5435 90.5707 50.6564 90.8053 50.6564H92.2145C92.4497 50.6564 92.5673 50.5435 92.4497 50.3176L88.5735 42.2992C88.4565 42.1863 88.4565 42.1863 88.3389 42.1863H88.2213C88.1625 42.1863 88.1331 42.2146 88.1037 42.2429C88.0744 42.2711 88.0452 42.2992 87.9867 42.2992L84.1105 50.3176C83.876 50.6564 83.993 50.7693 84.1105 50.7693ZM72.4831 50.5435C72.4831 50.6564 72.6007 50.8823 72.7183 50.8823H74.2451C74.3622 50.8823 74.4797 50.7693 74.4797 50.6564L74.9495 46.9296L77.0637 50.7693C77.1812 50.8823 77.1812 50.8823 77.2988 50.8823H77.5334C77.5922 50.8823 77.6216 50.854 77.651 50.8258C77.6804 50.7976 77.7098 50.7693 77.7686 50.7693L79.8828 46.9296L80.4695 50.6564C80.4695 50.7693 80.5871 50.8823 80.7047 50.8823H81.9964C82.114 50.8823 82.3491 50.7693 82.2315 50.5435L80.8223 42.5251C80.8223 42.4122 80.7047 42.2992 80.5871 42.2992H80.4695C80.4111 42.2992 80.3818 42.3274 80.3525 42.3556C80.3232 42.3839 80.2938 42.4122 80.2349 42.4122L77.4158 47.6072L74.5973 42.4122C74.4797 42.2992 74.4797 42.2992 74.3622 42.2992H74.1276C74.01 42.2992 73.8924 42.4122 73.8924 42.5251L72.4831 50.5435ZM142.483 39.7018C142.483 39.8147 142.6 39.9276 142.718 39.9276H144.245C144.362 39.9276 144.48 39.8147 144.48 39.7018V35.2973L149.413 40.0406L149.53 40.1535H149.765C149.882 40.1535 150 40.0406 150 39.9276V31.9093C150 31.7963 149.882 31.6834 149.765 31.6834H148.238C148.121 31.6834 148.003 31.7963 148.003 31.9093V36.2008L143.07 31.5705H142.718C142.6 31.5705 142.483 31.6834 142.483 31.7963V39.7018ZM133.087 35.862C133.087 34.5068 134.144 33.4904 135.553 33.4904C136.963 33.4904 138.02 34.5068 138.02 35.862C138.02 37.1042 136.963 38.2336 135.553 38.2336C134.262 38.1206 133.087 37.1042 133.087 35.862ZM131.091 35.862C131.091 38.2336 133.087 40.1535 135.553 40.1535C138.02 40.1535 140.016 38.2336 140.016 35.862C140.016 33.4904 138.02 31.5705 135.553 31.5705C133.087 31.4575 131.091 33.3774 131.091 35.862ZM121.225 39.7018C121.225 39.8147 121.342 39.9276 121.46 39.9276H122.987C123.104 39.9276 123.221 39.8147 123.221 39.7018V36.5396H126.745V39.7018C126.745 39.8147 126.862 39.9276 126.98 39.9276H128.507C128.624 39.9276 128.742 39.8147 128.742 39.7018V31.9093C128.742 31.7963 128.624 31.6834 128.507 31.6834H126.98C126.862 31.6834 126.745 31.7963 126.745 31.9093V34.8456H123.221V31.9093C123.221 31.7963 123.104 31.6834 122.987 31.6834H121.46C121.342 31.6834 121.225 31.7963 121.225 31.9093V39.7018ZM114.647 39.7018C114.647 39.8147 114.765 39.9276 114.883 39.9276H116.409C116.527 39.9276 116.644 39.8147 116.644 39.7018V33.3774H118.406C118.524 33.3774 118.641 33.2645 118.641 33.1516V31.9093C118.641 31.7963 118.524 31.6834 118.406 31.6834H112.886C112.768 31.6834 112.651 31.7963 112.651 31.9093V33.1516C112.651 33.2645 112.768 33.3774 112.886 33.3774H114.647V39.7018ZM108.07 37.1042H106.191L107.131 35.0714L108.07 37.1042ZM103.255 39.9276H104.664C104.899 39.9276 105.017 39.8147 105.134 39.5888L105.604 38.6854H109.01L109.48 39.5888C109.597 39.8147 109.715 39.9276 109.95 39.9276H111.359C111.594 39.9276 111.711 39.8147 111.594 39.5888L107.718 31.5705C107.651 31.506 107.622 31.4783 107.588 31.4664C107.562 31.4575 107.533 31.4575 107.483 31.4575H107.366C107.307 31.4575 107.278 31.4858 107.248 31.514C107.219 31.5422 107.19 31.5705 107.131 31.5705L103.255 39.5888C103.02 39.8147 103.02 39.9276 103.255 39.9276ZM96.5605 35.1844V33.3774H98.4395C98.9092 33.3774 99.379 33.8292 99.379 34.2809C99.379 34.7326 98.9092 35.1844 98.4395 35.1844H96.5605ZM94.6814 39.7018C94.6814 39.8147 94.7985 39.9276 94.916 39.9276H96.4429C96.5605 39.9276 96.678 39.8147 96.678 39.7018V36.6525H97.6175L99.2614 39.8147C99.2614 39.9276 99.379 39.9276 99.4966 39.9276H101.141C101.376 39.9276 101.493 39.7018 101.376 39.5888L99.7317 36.5396C100.788 36.0878 101.611 35.2973 101.611 34.168C101.611 32.6998 100.318 31.5705 98.9092 31.5705H94.916C94.7985 31.5705 94.6814 31.6834 94.6814 31.7963V39.7018ZM89.0438 37.1042H87.1642L88.1038 35.0714L89.0438 37.1042ZM84.1105 39.9276H85.5198C85.755 39.9276 85.8726 39.8147 85.9901 39.5888L86.4599 38.6854H89.8658L90.3355 39.5888C90.4531 39.8147 90.5707 39.9276 90.8053 39.9276H92.2145C92.4497 39.9276 92.5673 39.8147 92.4497 39.5888L88.5735 31.5705C88.4565 31.4575 88.4565 31.4575 88.3389 31.4575H88.2213C88.1625 31.4575 88.1331 31.4858 88.1037 31.5141C88.0744 31.5423 88.0452 31.5705 87.9867 31.5705L84.1105 39.5888C83.876 39.8147 83.993 39.9276 84.1105 39.9276ZM72.4831 39.7018C72.4831 39.8147 72.6007 40.0406 72.7183 40.0406H74.2451C74.3622 40.0406 74.4797 39.9276 74.4797 39.8147L74.9495 36.0878L77.0637 39.9276C77.1812 40.0406 77.1812 40.0406 77.2988 40.0406H77.5334C77.5922 40.0406 77.6216 40.0123 77.651 39.9841C77.6804 39.9559 77.7098 39.9276 77.7686 39.9276L79.8828 36.0878L80.4695 39.8147C80.4695 39.9276 80.5871 40.0406 80.7047 40.0406H81.9964C82.114 40.0406 82.3491 39.9276 82.2315 39.7018L80.9393 31.6834C80.9393 31.5705 80.8223 31.4575 80.7047 31.4575H80.4695C80.4111 31.4575 80.3818 31.4857 80.3525 31.5139C80.3232 31.5422 80.2938 31.5705 80.2349 31.5705L77.4158 36.7654L74.5973 31.5705C74.5301 31.506 74.5013 31.4783 74.4671 31.4664C74.4414 31.4575 74.4126 31.4575 74.3622 31.4575H74.1276C74.01 31.4575 73.8924 31.5705 73.8924 31.6834L72.4831 39.7018ZM113.59 27.2789V22.4228H114.765C116.174 22.4228 117.231 23.4392 117.231 24.7944C117.231 26.1496 116.174 27.166 114.765 27.166L113.59 27.2789ZM111.594 28.8601C111.594 28.973 111.711 29.0859 111.829 29.0859H114.883C117.349 29.0859 119.228 27.2789 119.228 24.9073C119.228 22.6486 117.231 20.7288 114.883 20.7288H111.829C111.711 20.7288 111.594 20.8417 111.594 20.9546V28.8601ZM104.195 28.8601C104.195 28.973 104.312 29.0859 104.429 29.0859H109.01C109.127 29.0859 109.245 28.973 109.245 28.8601V27.6177C109.245 27.5048 109.127 27.3919 109.01 27.3919H106.074V21.0676C106.074 20.9546 105.956 20.8417 105.839 20.8417H104.312C104.195 20.8417 104.077 20.9546 104.077 21.0676V28.8601H104.195ZM96.5605 24.3427V22.5357H98.4395C98.9092 22.5357 99.379 22.9875 99.379 23.4392C99.379 23.8909 98.9092 24.3427 98.4395 24.3427H96.5605ZM94.6814 28.8601C94.6814 28.973 94.7985 29.0859 94.916 29.0859H96.4429C96.5605 29.0859 96.678 28.973 96.678 28.8601V25.8108H97.6175L99.2614 28.973C99.2614 29.0859 99.379 29.0859 99.4966 29.0859H101.141C101.376 29.0859 101.493 28.8601 101.376 28.7471L99.4966 25.6979C100.554 25.2461 101.376 24.4556 101.376 23.3263C101.376 21.8581 100.084 20.7288 98.6746 20.7288H94.916C94.7985 20.7288 94.6814 20.8417 94.6814 20.9546V28.8601ZM85.5198 24.9073C85.5198 23.5521 86.5769 22.5357 87.9867 22.5357C89.396 22.5357 90.4531 23.5521 90.4531 24.9073C90.4531 26.1496 89.396 27.2789 87.9867 27.2789C86.6945 27.2789 85.5198 26.1496 85.5198 24.9073ZM83.5232 24.9073C83.5232 27.2789 85.5198 29.1989 87.9867 29.1989C90.4531 29.1989 92.4497 27.2789 92.4497 24.9073C92.4497 22.5357 90.4531 20.6158 87.9867 20.6158C85.5198 20.6158 83.5232 22.5357 83.5232 24.9073ZM74.5973 28.973C74.5973 29.0859 74.7149 29.0859 74.8319 29.0859H74.9495C75.0083 29.0859 75.0377 29.0577 75.0671 29.0294C75.0965 29.0012 75.1259 28.973 75.1846 28.973L77.4158 24.1168H77.5334L79.7652 28.973C79.8828 29.0859 79.8828 29.0859 79.9998 29.0859H80.2349C80.3525 29.0859 80.4695 28.973 80.4695 28.973L82.8189 20.9546C82.9364 20.8417 82.7013 20.6158 82.5837 20.6158H81.0569C80.9393 20.6158 80.8223 20.7288 80.8223 20.7288L79.7652 24.7944H79.6476L77.7686 20.6158C77.7686 20.5029 77.651 20.5029 77.5334 20.5029H77.2988C77.24 20.5029 77.2106 20.5311 77.1812 20.5594C77.1518 20.5876 77.1225 20.6158 77.0637 20.6158L75.1846 24.7944H75.0671L74.01 20.7288C74.01 20.6158 73.8924 20.6158 73.7754 20.6158H72.2485C72.131 20.6158 71.8958 20.7288 72.0134 20.9546L74.5973 28.973ZM123.456 10.1129H117.936C117.819 10.1129 117.701 10.2258 117.701 10.3388V11.5811C117.701 11.694 117.819 11.8069 117.936 11.8069H119.698V18.1313C119.698 18.2442 119.815 18.3571 119.933 18.3571H121.46C121.577 18.3571 121.694 18.2442 121.694 18.1313V11.8069H123.456C123.574 11.8069 123.691 11.694 123.691 11.5811V10.3388C123.808 10.2258 123.574 10.1129 123.456 10.1129ZM109.832 10.1129H115.352C115.587 10.1129 115.704 10.2258 115.587 10.3388V11.5811C115.587 11.694 115.47 11.8069 115.352 11.8069H113.59V18.1313C113.59 18.2442 113.473 18.3571 113.356 18.3571H111.829C111.711 18.3571 111.594 18.2442 111.594 18.1313V11.8069H109.832C109.715 11.8069 109.597 11.694 109.597 11.5811V10.3388C109.597 10.2258 109.715 10.1129 109.832 10.1129ZM103.607 10C101.141 10 99.1444 11.9199 99.1444 14.2915C99.1444 16.6631 101.141 18.583 103.607 18.583C106.074 18.583 108.07 16.6631 108.07 14.2915C107.953 11.9199 105.956 10 103.607 10ZM103.607 16.6631C102.315 16.6631 101.141 15.6467 101.141 14.2915C101.141 12.9363 102.198 11.9199 103.607 11.9199C105.017 11.9199 106.074 12.9363 106.074 14.2915C105.956 15.6467 104.899 16.6631 103.607 16.6631ZM96.9126 12.2587C96.9126 13.1621 95.9731 13.8397 95.3858 14.1786C96.0907 14.5173 97.0302 15.0821 97.1478 16.0985C97.1478 17.4537 95.9731 18.4701 94.4463 18.4701H91.3926C91.275 18.4701 91.1574 18.3571 91.1574 18.2442V10.3388C91.1574 10.2258 91.275 10.1129 91.3926 10.1129H94.2111C95.738 10.1129 96.9126 11.0164 96.9126 12.2587ZM93.9765 11.8069H93.037V13.5009H93.9765C94.5639 13.5009 94.916 13.0492 94.916 12.5975C94.916 12.1457 94.4463 11.8069 93.9765 11.8069ZM93.037 16.7761H94.0941C94.5639 16.7761 94.916 16.3243 95.1512 15.9855C95.1512 15.4209 94.5639 15.0821 94.0941 15.0821H93.037V16.7761ZM86.812 14.1786C87.3994 13.8397 88.3389 13.1621 88.3389 12.2587C88.3389 11.0164 87.1642 10.1129 85.6374 10.1129H82.7012C82.5837 10.1129 82.4667 10.2258 82.4667 10.3388V18.2442C82.4667 18.3571 82.5837 18.4701 82.7012 18.4701H85.7549C87.2818 18.4701 88.4564 17.4537 88.4564 16.0985C88.4564 15.0821 87.5169 14.5173 86.812 14.1786ZM84.3457 11.8069H85.2852C85.7549 11.8069 86.2247 12.1457 86.2247 12.5975C86.2247 13.0492 85.8725 13.5009 85.2852 13.5009H84.3457V11.8069ZM85.5198 16.7761H84.3457V15.0821H85.4028C85.8725 15.0821 86.4598 15.4209 86.4598 15.9855C86.3423 16.3243 85.9901 16.7761 85.5198 16.7761ZM76.2417 10C76.3587 10 76.4763 10 76.4763 10.1129L80.587 18.1313C80.7046 18.3572 80.587 18.4701 80.3524 18.4701H78.9426C78.708 18.4701 78.5904 18.3572 78.4729 18.1313L78.0031 17.2278H74.5972L74.1275 18.1313C74.0099 18.3572 73.8923 18.4701 73.6577 18.4701H72.2485C72.0133 18.4701 71.8957 18.2442 72.0133 18.1313L75.8889 10.1129C75.9477 10.1129 75.9771 10.0847 76.0065 10.0565C76.0359 10.0282 76.0653 10 76.1241 10H76.2417ZM76.2417 13.6139L75.3022 15.6467H77.2988L76.2417 13.6139Z" fill="#010107"/>
</svg>

<svg xmlns="http://www.w3.org/2000/svg" width="160" height="60" fill="none" viewBox="0 0 160 60"><path fill="#010107" fill-rule="evenodd" d="M17.047 23.665c-3.876 0-7.047 3.05-7.047 6.776v13.665c0 3.727 3.171 6.776 7.047 6.776h38.876c3.876 0 7.047-3.049 7.047-6.776v-27.33c0-3.727-3.171-6.776-7.047-6.776H10.117v6.889h43.574c1.292 0 2.232 1.016 2.232 2.146v22.7c0 1.242-1.057 2.145-2.232 2.145H19.396c-1.292 0-2.232-1.016-2.232-2.145v-9.148c0-1.242 1.057-2.146 2.232-2.146h29.48v-6.776H17.047zM121.46 49.98c.352.339 1.174.903 2.818.903 1.88 0 2.937-1.242 2.937-2.484 0-1.581-1.527-2.372-2.467-2.71-.94-.34-1.292-.678-1.292-1.13 0-.339.352-.678.822-.678.501 0 1.12.342 1.478.54.147.08.25.138.284.138.118.113.352 0 .47-.113l.705-.904c.117-.112.117-.338-.118-.338-.352-.34-1.409-.904-2.701-.904-1.879 0-2.819 1.242-2.819 2.372 0 1.468 1.292 2.258 2.467 2.597.822.34 1.291.678 1.291 1.243 0 .451-.352.677-.939.677-.597 0-1.194-.357-1.521-.553-.124-.073-.209-.124-.241-.124-.117-.113-.352-.113-.469.113l-.588 1.016c-.176.085-.154.17-.132.254.007.028.015.057.015.085zm-7.4-3.953V44.22h1.88c.469 0 .939.452.939.904 0 .451-.47.903-.939.903h-1.88zm-1.879 4.517c0 .113.118.226.235.226h1.527c.117 0 .235-.113.235-.225v-3.05h.939l1.645 3.162c0 .113.117.113.235.113h1.644c.235 0 .352-.225.235-.338l-1.645-3.05c1.057-.451 1.879-1.242 1.879-2.371 0-1.468-1.291-2.598-2.701-2.598h-3.641c-.117 0-.235.113-.235.226v7.906h-.352zm-9.396-3.952c0-1.355 1.057-2.372 2.467-2.372 1.409 0 2.466 1.017 2.466 2.372 0 1.242-1.057 2.371-2.466 2.371-1.292.113-2.467-1.016-2.467-2.371zm-1.879 0c0 2.371 1.996 4.291 4.463 4.291s4.463-1.92 4.463-4.291c0-2.372-1.996-4.292-4.463-4.292-2.584 0-4.463 1.92-4.463 4.292zm-7.282 3.388c.235.339.822.903 1.88.903 1.526 0 2.7-.903 2.7-2.597v-5.647c0-.113-.117-.226-.234-.226h-1.527c-.118 0-.235.113-.235.226v5.534c0 .565-.352.903-.705.903-.352 0-.47-.113-.704-.339-.118-.112-.235-.112-.353 0l-.822.791v.452zm-6.46-2.033l.94-2.033.94 2.033h-1.88zm-3.053 2.823h1.409c.235 0 .353-.113.47-.338l.47-1.017h3.406l.47.904c.117.226.235.338.47.338h1.409c.235 0 .352-.112.235-.338L88.573 42.3c-.116-.113-.116-.113-.234-.113h-.118c-.059 0-.088.029-.117.057-.03.028-.059.056-.117.056l-3.876 8.019c-.235.338-.118.451 0 .451zm-11.628-.225c0 .112.118.338.235.338h1.527c.117 0 .235-.113.235-.226l.47-3.726 2.114 3.84c.117.112.117.112.235.112h.234c.06 0 .089-.028.118-.056.03-.028.059-.057.118-.057l2.114-3.84.587 3.727c0 .113.117.226.235.226h1.291c.118 0 .353-.113.236-.338l-1.41-8.019c0-.113-.117-.226-.235-.226h-.118c-.058 0-.087.028-.116.057-.03.028-.06.056-.118.056l-2.82 5.195-2.818-5.195c-.117-.113-.117-.113-.235-.113h-.234c-.118 0-.236.113-.236.226l-1.409 8.019zm70-10.842c0 .113.117.226.235.226h1.527c.117 0 .235-.113.235-.226v-4.405l4.933 4.744.117.113h.235c.117 0 .235-.113.235-.226V31.91c0-.113-.118-.226-.235-.226h-1.527c-.117 0-.235.113-.235.226v4.292l-4.933-4.63h-.352c-.118 0-.235.112-.235.225v7.906zm-9.396-3.84c0-1.355 1.057-2.372 2.466-2.372 1.41 0 2.467 1.017 2.467 2.372 0 1.242-1.057 2.372-2.467 2.372-1.291-.113-2.466-1.13-2.466-2.372zm-1.996 0c0 2.372 1.996 4.291 4.462 4.291 2.467 0 4.463-1.92 4.463-4.291 0-2.372-1.996-4.292-4.463-4.292-2.466-.113-4.462 1.807-4.462 4.292zm-9.866 3.84c0 .113.117.226.235.226h1.527c.117 0 .234-.113.234-.226V36.54h3.524v3.162c0 .113.117.226.235.226h1.527c.117 0 .235-.113.235-.226v-7.793c0-.113-.118-.226-.235-.226h-1.527c-.118 0-.235.113-.235.226v2.937h-3.524v-2.937c0-.113-.117-.226-.234-.226h-1.527c-.118 0-.235.113-.235.226v7.793zm-6.578 0c0 .113.118.226.236.226h1.526c.118 0 .235-.113.235-.226v-6.325h1.762c.118 0 .235-.113.235-.225V31.91c0-.113-.117-.226-.235-.226h-5.52c-.118 0-.235.113-.235.226v1.243c0 .112.117.225.235.225h1.761v6.325zm-6.577-2.598h-1.879l.94-2.033.939 2.033zm-4.815 2.824h1.409c.235 0 .353-.113.47-.34l.47-.903h3.406l.47.904c.117.226.235.339.47.339h1.409c.235 0 .352-.113.235-.34l-3.876-8.018c-.067-.064-.096-.092-.13-.104-.026-.009-.055-.009-.105-.009h-.117c-.059 0-.088.029-.118.057-.029.028-.058.056-.117.056l-3.876 8.019c-.235.226-.235.339 0 .339zm-6.694-4.744v-1.807h1.878c.47 0 .94.452.94.904s-.47.903-.94.903h-1.878zm-1.88 4.518c0 .113.118.226.235.226h1.527c.118 0 .235-.113.235-.226v-3.05h.94l1.643 3.163c0 .113.118.113.236.113h1.644c.235 0 .352-.226.235-.34l-1.644-3.048c1.056-.452 1.879-1.243 1.879-2.372 0-1.468-1.293-2.598-2.702-2.598h-3.993c-.117 0-.235.113-.235.226v7.906zm-5.637-2.598h-1.88l.94-2.033.94 2.033zm-4.933 2.824h1.409c.235 0 .353-.113.47-.34l.47-.903h3.406l.47.904c.117.226.235.339.47.339h1.409c.235 0 .352-.113.235-.34l-3.877-8.018c-.116-.113-.116-.113-.234-.113h-.118c-.059 0-.088.029-.117.057-.03.028-.059.056-.117.056L84.11 39.59c-.235.226-.118.339 0 .339zm-11.628-.226c0 .113.118.339.235.339h1.527c.117 0 .235-.113.235-.226l.47-3.727 2.114 3.84c.117.113.117.113.235.113h.234c.06 0 .089-.029.118-.057.03-.028.059-.056.118-.056l2.114-3.84.587 3.727c0 .113.117.226.235.226h1.291c.118 0 .353-.113.236-.34l-1.293-8.018c0-.113-.117-.226-.234-.226h-.236c-.058 0-.087.029-.116.057-.03.028-.06.056-.118.056l-2.82 5.195-2.818-5.195c-.067-.064-.096-.092-.13-.104-.026-.009-.054-.009-.105-.009h-.234c-.118 0-.236.113-.236.226l-1.409 8.019zM113.59 27.28v-4.856h1.175c1.409 0 2.466 1.016 2.466 2.371 0 1.356-1.057 2.372-2.466 2.372l-1.175.113zm-1.996 1.581c0 .113.117.226.235.226h3.054c2.466 0 4.345-1.807 4.345-4.179 0-2.258-1.997-4.178-4.345-4.178h-3.054c-.118 0-.235.113-.235.226v7.905zm-7.399 0c0 .113.117.226.234.226h4.581c.117 0 .235-.113.235-.226v-1.242c0-.113-.118-.226-.235-.226h-2.936v-6.324c0-.113-.118-.226-.235-.226h-1.527c-.117 0-.235.113-.235.226v7.792h.118zm-7.634-4.517v-1.807h1.878c.47 0 .94.451.94.903s-.47.904-.94.904h-1.878zm-1.88 4.517c0 .113.118.226.235.226h1.527c.118 0 .235-.113.235-.226v-3.05h.94l1.643 3.163c0 .113.118.113.236.113h1.644c.235 0 .352-.226.235-.339l-1.88-3.05c1.058-.45 1.88-1.241 1.88-2.37 0-1.469-1.292-2.598-2.701-2.598h-3.759c-.117 0-.235.113-.235.226v7.905zm-9.161-3.953c0-1.355 1.057-2.371 2.467-2.371 1.409 0 2.466 1.016 2.466 2.371 0 1.243-1.057 2.372-2.466 2.372-1.292 0-2.467-1.13-2.467-2.372zm-1.997 0c0 2.372 1.997 4.292 4.464 4.292 2.466 0 4.463-1.92 4.463-4.292 0-2.371-1.997-4.291-4.463-4.291-2.467 0-4.464 1.92-4.464 4.291zm-8.926 4.066c0 .113.118.113.235.113h.118c.058 0 .088-.028.117-.057.03-.028.059-.056.118-.056l2.23-4.856h.118l2.232 4.856c.118.113.118.113.235.113h.235c.118 0 .234-.113.234-.113l2.35-8.018c.117-.113-.118-.34-.235-.34h-1.527c-.118 0-.235.114-.235.114l-1.057 4.065h-.117l-1.88-4.178c0-.113-.117-.113-.235-.113H77.3c-.059 0-.088.028-.118.056-.03.029-.058.057-.117.057l-1.88 4.178h-.117L74.01 20.73c0-.113-.118-.113-.235-.113H72.25c-.118 0-.353.113-.236.339l2.584 8.018zm48.859-18.86h-5.52c-.117 0-.235.113-.235.226v1.242c0 .113.118.226.235.226h1.762v6.324c0 .113.117.226.235.226h1.527c.117 0 .234-.113.234-.226v-6.324h1.762c.118 0 .235-.113.235-.226V10.34c.117-.113-.117-.226-.235-.226zm-13.624 0h5.52c.235 0 .352.113.235.226v1.242c0 .113-.117.226-.235.226h-1.762v6.324c0 .113-.117.226-.234.226h-1.527c-.118 0-.235-.113-.235-.226v-6.324h-1.762c-.117 0-.235-.113-.235-.226V10.34c0-.113.118-.226.235-.226zM103.607 10c-2.466 0-4.463 1.92-4.463 4.291 0 2.372 1.997 4.292 4.463 4.292 2.467 0 4.463-1.92 4.463-4.291-.117-2.372-2.114-4.292-4.463-4.292zm0 6.663c-1.292 0-2.466-1.016-2.466-2.372 0-1.355 1.057-2.371 2.466-2.371 1.41 0 2.467 1.016 2.467 2.371-.118 1.356-1.175 2.372-2.467 2.372zm-6.694-4.404c0 .903-.94 1.58-1.527 1.92.705.338 1.644.903 1.762 1.92 0 1.355-1.175 2.371-2.702 2.371h-3.053c-.118 0-.236-.113-.236-.226V10.34c0-.113.118-.226.236-.226h2.818c1.527 0 2.702.903 2.702 2.146zm-2.936-.452h-.94V13.5h.94a.908.908 0 0 0 .939-.903c0-.452-.47-.791-.94-.791zm-.94 4.97h1.057c.47 0 .822-.453 1.057-.792 0-.564-.587-.903-1.057-.903h-1.057v1.694zm-6.225-2.598c.587-.34 1.527-1.017 1.527-1.92 0-1.243-1.175-2.146-2.702-2.146h-2.936c-.117 0-.234.113-.234.226v7.905c0 .113.117.226.234.226h3.054c1.527 0 2.701-1.016 2.701-2.371 0-1.017-.94-1.582-1.644-1.92zm-2.466-2.372h.94c.469 0 .939.339.939.79a.908.908 0 0 1-.94.904h-.94v-1.694zm1.174 4.97h-1.174v-1.695h1.057c.47 0 1.057.339 1.057.903-.118.34-.47.791-.94.791zM76.242 10c.117 0 .234 0 .234.113l4.111 8.018c.118.226 0 .34-.235.34h-1.41c-.234 0-.352-.114-.47-.34l-.469-.903h-3.406l-.47.903c-.117.226-.235.34-.47.34H72.25c-.236 0-.353-.227-.236-.34l3.876-8.018c.059 0 .088-.028.118-.056.029-.029.058-.057.117-.057h.118zm0 3.614l-.94 2.033H77.3l-1.057-2.033z" clip-rule="evenodd"/></svg>
